images/F39.svg

<?xml version="1.0" encoding="UTF-8" standalone="no"?>
<svg
   width="557px"
   height="600px"
   version="1.1"
   id="svg2019"
   sodipodi:docname="F39.svg"
   inkscape:version="1.2.2 (732a01da63, 2022-12-09)"
   inkscape:export-filename="..\png\F39.png"
   inkscape:export-xdpi="96"
   inkscape:export-ydpi="96"
   xmlns:inkscape="http://www.inkscape.org/namespaces/inkscape"
   xmlns:sodipodi="http://sodipodi.sourceforge.net/DTD/sodipodi-0.dtd"
   xmlns="http://www.w3.org/2000/svg"
   xmlns:svg="http://www.w3.org/2000/svg">
  <defs
     id="defs2023" />
  <sodipodi:namedview
     id="namedview2021"
     pagecolor="#505050"
     bordercolor="#ffffff"
     borderopacity="1"
     inkscape:showpageshadow="0"
     inkscape:pageopacity="0"
     inkscape:pagecheckerboard="1"
     inkscape:deskcolor="#505050"
     showgrid="false"
     inkscape:zoom="1.3816667"
     inkscape:cx="244.2702"
     inkscape:cy="300.36187"
     inkscape:window-width="1920"
     inkscape:window-height="1009"
     inkscape:window-x="-8"
     inkscape:window-y="-8"
     inkscape:window-maximized="1"
     inkscape:current-layer="svg2019" />
  <g
     transform="matrix(-1,0,0,1,557.21465,0)"
     id="g2017">
    <path
       fill="#000000"
       stroke="none"
       d="M 36.61,596.7 C 29.21,593.14 18.76,583.02 13.34,574.16 -2.15,548.86 -4.26,487.64 8.71,439.23 19.11,400.44 38.8,365.84 65.98,338.71 c 8.32,-8.31 19.87,-18.26 25.67,-22.09 9.46,-6.26 38.5,-19.45 42.88,-19.48 0.96,-0.01 5.31,-1.35 9.67,-2.98 7.71,-2.87 8.01,-3.2 10.21,-10.77 2.57,-8.8 4.94,-10.66 13.64,-10.66 h 6.03 l -0.96,-7.54 c -0.54,-4.15 -5.43,-31.12 -10.89,-59.93 C 156.78,176.44 150,140.27 147.16,124.88 144.32,109.49 139.72,86.24 136.94,73.21 126.36,23.57 129.39,8.5 151.21,2.17 c 7.64,-2.23 8.67,-2.23 15.47,0.04 4.01,1.32 9.33,4.22 11.85,6.42 l 4.56,4 4.55,-4.06 c 2.5,-2.23 8.03,-5.15 12.31,-6.5 7.35,-2.33 8.16,-2.31 15.39,0.08 4.2,1.4 9.86,4.58 12.58,7.08 l 4.94,4.54 4.57,-4.57 c 2.64,-2.64 7.91,-5.61 12.53,-7.06 7.62,-2.41 8.34,-2.4 15.62,0.01 4.21,1.4 9.86,4.58 12.59,7.08 l 4.94,4.54 4.56,-4.57 c 2.64,-2.64 7.91,-5.61 12.54,-7.06 7.6,-2.4 8.35,-2.4 15.51,-0.02 4.15,1.38 9.59,4.31 12.11,6.51 l 4.56,4 4.55,-4.06 c 2.5,-2.23 8.03,-5.15 12.3,-6.5 7.34,-2.31 8.17,-2.31 15.29,0.05 4.15,1.38 9.59,4.31 12.11,6.51 l 4.56,4 4.55,-4.06 c 2.5,-2.23 8.03,-5.15 12.3,-6.5 7.34,-2.31 8.17,-2.31 15.29,0.05 4.15,1.38 9.59,4.31 12.1,6.51 l 4.57,4 4.55,-4.06 c 2.5,-2.23 8.03,-5.15 12.3,-6.5 7.32,-2.31 8.19,-2.31 15.21,0.03 8.49,2.81 15.11,7.85 18.23,13.88 1.17,2.28 3.7,13.99 5.61,26.02 5.05,31.77 7.38,44.05 26.89,142.09 l 17.64,88.62 10.41,0.02 c 16.18,0 16.15,-0.06 16.15,31.58 0,33.3 1.32,31.58 -24.4,31.58 -23.19,0 -24.41,0.76 -24.41,15.07 0,15.47 1.09,15.07 -41.63,15.07 -42.72,0 -41.63,0.4 -41.63,-15.07 0,-16.19 5.25,-15.07 -71.06,-15.07 -76.32,0 -71.06,-1.12 -71.06,15.07 0,15.44 0.99,15.07 -40.92,15.07 -42.16,0 -40.91,0.49 -40.91,-15.79 0,-15.03 -1.13,-15.79 -23.49,-15.79 -17.55,0 -17.81,-0.04 -23.17,-4.31 -6.72,-5.34 -9.59,-5.36 -18.66,-0.14 -12.73,7.32 -26.28,22.92 -35.29,40.64 -15.54,30.54 -19.03,65.21 -12.61,125.34 1.68,15.76 3.11,37.06 3.2,47.32 0.16,21.17 -2.06,29.26 -11.37,41.44 -10.67,13.97 -28.5,18.93 -42.98,11.96 m 22.97,-6.56 c 7.39,-3.36 15.83,-12.76 20.61,-22.98 3.42,-7.27 3.78,-9.63 3.65,-23.86 -0.07,-8.68 -1.6,-29.68 -3.38,-46.65 -4.4,-41.97 -3.73,-79.87 1.8,-100.78 9.04,-34.22 29.46,-63.93 51.48,-74.9 11.02,-5.5 18.44,-4.75 27.36,2.76 4,3.37 5.12,3.54 22.77,3.54 23.27,0 24.29,0.66 24.29,15.79 0,15.91 -0.25,15.79 33.73,15.79 33.52,0 33.74,-0.1 33.74,-14.42 0,-7.3 0.56,-9.23 3.52,-12.21 l 3.53,-3.51 h 71.83 c 84.07,0 77.6,-1.31 77.6,15.7 0,14.54 -0.26,14.44 34.77,14.44 34.2,0 34.13,0.03 34.13,-15.07 0,-14.31 1.22,-15.07 24.41,-15.07 25.02,0 24.4,0.62 24.4,-24.4 0,-16.75 -0.3,-18.97 -2.87,-21.53 -2.84,-2.85 -4.78,-2.88 -190.66,-2.88 -148,0 -188.29,0.38 -190.14,1.8 -1.29,0.99 -3.53,5.02 -4.96,8.97 l -2.62,7.18 -19.35,6.5 C 105.87,315.53 91.53,324.56 68.48,348.8 26.79,392.63 4.74,453.53 7.64,516.75 c 1.35,29.45 8.27,50.01 21.39,63.47 6.77,6.96 16.53,12.55 21.93,12.55 1.58,0 5.46,-1.18 8.62,-2.63 M 221.92,265.19 c -0.53,-4.15 -5.42,-31.12 -10.88,-59.93 -5.45,-28.82 -12.23,-64.99 -15.07,-80.38 C 193.13,109.49 188.62,86.56 185.93,73.92 183.26,61.29 180.41,44.93 179.6,37.55 178.71,29.5 177.06,22.33 175.47,19.61 172.63,14.73 163.3,8.66 158.63,8.66 c -4.84,0 -14.04,6.14 -17.11,11.41 -3.75,6.41 -3.55,21.18 0.53,39.5 1.59,7.1 6.49,31.97 10.9,55.26 4.4,23.28 11.9,62.69 16.66,87.56 4.75,24.86 9.68,50.87 10.94,57.78 l 2.28,12.56 h 20.03 20.03 l -0.97,-7.54 m 50.25,0 C 271.05,256.48 250.48,146.94 239.09,89 234.82,67.29 230.26,43.64 228.96,36.43 c -1.31,-7.19 -3.6,-15.11 -5.11,-17.58 -3.35,-5.5 -13.93,-11 -18.75,-9.75 -6.22,1.62 -12.75,6.6 -15.1,11.56 -3.55,7.42 -2.46,13.96 26.44,159.84 l 18.28,92.23 h 19.2 19.21 l -0.96,-7.54 m 50.24,0 C 321.29,256.48 300.72,146.94 289.34,89 285.06,67.29 280.51,43.64 279.2,36.43 276.4,20.94 273.45,15.5 265.69,11.54 258.56,7.89 256.82,7.89 249.75,11.5 c -11.35,5.8 -13.4,13.22 -9.88,35.9 3.26,20.97 14.7,80.82 30.92,161.8 l 12.73,63.51 h 19.93 l 19.93,0.02 -0.97,-7.54 m 48.81,0 c -0.53,-4.15 -5.42,-31.12 -10.88,-59.93 -5.45,-28.82 -12.23,-64.99 -15.07,-80.38 -2.84,-15.39 -7.35,-38.32 -10.04,-50.96 -2.67,-12.63 -5.51,-28.89 -6.3,-36.15 -1.66,-15.1 -4.15,-20.93 -10.66,-24.94 -7.43,-4.59 -10.84,-4.89 -17.63,-1.59 -11.96,5.8 -14.09,13.13 -10.53,36.16 3.26,20.97 14.7,80.82 30.93,161.8 l 12.73,63.51 h 19.21 l 19.21,0.02 -0.97,-7.54 m 48.81,0 c -0.53,-4.15 -5.42,-31.12 -10.88,-59.93 -5.45,-28.82 -12.23,-64.99 -15.07,-80.38 -2.84,-15.39 -7.35,-38.32 -10.04,-50.96 -2.67,-12.63 -5.52,-28.99 -6.33,-36.37 -0.89,-8.05 -2.54,-15.22 -4.13,-17.94 -2.84,-4.88 -12.18,-10.95 -16.84,-10.95 -4.77,0 -14.01,6.11 -17.01,11.22 -4.22,7.23 -3.52,11.54 26.01,160.62 l 18.27,92.23 h 18.49 18.49 l -0.96,-7.54 m 48.81,0 c -0.53,-4.15 -5.42,-31.12 -10.88,-59.93 -5.45,-28.82 -12.23,-64.99 -15.07,-80.38 -2.85,-15.39 -7.35,-38.32 -10.04,-50.96 -2.67,-12.63 -5.52,-28.99 -6.33,-36.37 -0.89,-8.05 -2.54,-15.22 -4.13,-17.94 -2.85,-4.88 -12.18,-10.95 -16.84,-10.95 -4.77,0 -14.01,6.11 -17.01,11.22 -4.22,7.23 -3.52,11.54 26.01,160.62 l 18.27,92.23 h 18.49 18.49 l -0.96,-7.54 m 51.35,0 c -0.43,-4.15 -7.75,-42.73 -16.25,-85.76 C 480.91,62.86 481.12,63.93 477.2,43.06 475.2,32.4 472.43,21.75 471.05,19.38 468.33,14.68 458.94,8.66 454.36,8.66 c -4.77,0 -14.01,6.11 -17.01,11.22 -4.23,7.23 -3.52,11.54 26.01,160.62 l 18.27,92.23 h 19.67 19.68 l -0.79,-7.54"
       id="path1999" />
    <path
       fill="#efae7a"
       stroke="none"
       d="m 180.55,260.17 c -1.26,-6.91 -6.19,-32.92 -10.94,-57.78 -4.76,-24.87 -12.26,-64.28 -16.66,-87.56 -4.41,-23.29 -9.31,-48.16 -10.9,-55.26 -3.82,-17.17 -4.16,-32.93 -0.86,-39.17 2.7,-5.11 9.17,-9.72 15.57,-11.13 5.3,-1.17 15.21,4.31 18.72,10.34 1.58,2.72 3.23,9.92 4.12,17.94 0.81,7.38 3.66,23.74 6.33,36.37 2.69,12.64 7.2,35.57 10.04,50.96 2.84,15.39 9.62,51.56 15.07,80.38 5.46,28.81 10.35,55.78 10.88,59.93 l 0.97,7.54 h -20.03 -20.03 l -2.28,-12.56"
       id="path2001"
       style="fill:#782121" />
    <path
       fill="#efae7a"
       stroke="none"
       d="M 216.44,180.5 C 195.5,74.76 193.47,64.11 190.13,41.84 187.86,26.76 187.84,25.18 190,20.66 c 2.35,-4.96 8.88,-9.94 15.1,-11.56 4.82,-1.25 15.4,4.25 18.75,9.75 1.51,2.47 3.8,10.39 5.11,17.58 1.3,7.21 5.86,30.86 10.13,52.57 11.39,57.94 31.96,167.48 33.08,176.19 l 0.96,7.54 h -19.21 -19.2 L 216.44,180.5"
       id="path2003"
       style="fill:#782121" />
    <path
       fill="#efae7a"
       stroke="none"
       d="M 270.79,209.2 C 254.57,128.22 243.13,68.37 239.87,47.4 c -3.52,-22.68 -1.47,-30.1 9.88,-35.9 7.07,-3.61 8.81,-3.61 15.94,0.04 7.76,3.96 10.71,9.4 13.51,24.89 1.31,7.21 5.86,30.86 10.14,52.57 11.38,57.94 31.95,167.48 33.07,176.19 l 0.97,7.54 -19.93,-0.02 H 283.52 L 270.79,209.2"
       id="path2005"
       style="fill:#782121" />
    <path
       fill="#efae7a"
       stroke="none"
       d="M 321.04,209.2 C 304.81,128.22 293.37,68.37 290.11,47.4 c -3.56,-23.03 -1.43,-30.36 10.53,-36.16 6.79,-3.3 10.2,-3 17.63,1.59 6.51,4.01 9,9.84 10.66,24.94 0.79,7.26 3.63,23.52 6.3,36.15 2.69,12.64 7.2,35.57 10.04,50.96 2.84,15.39 9.62,51.56 15.07,80.38 5.46,28.81 10.35,55.78 10.88,59.93 l 0.97,7.54 -19.21,-0.02 H 333.77 L 321.04,209.2"
       id="path2007"
       style="fill:#782121" />
    <path
       fill="#efae7a"
       stroke="none"
       d="M 365.74,180.5 C 344.36,72.57 342.64,63.56 339.38,41.41 c -2.41,-16.33 -2.39,-16.82 0.35,-21.53 3,-5.11 12.24,-11.22 17.01,-11.22 4.66,0 14,6.07 16.84,10.95 1.59,2.72 3.24,9.89 4.13,17.94 0.81,7.38 3.66,23.74 6.33,36.37 2.69,12.64 7.2,35.57 10.04,50.96 2.84,15.39 9.62,51.56 15.07,80.38 5.46,28.81 10.35,55.78 10.88,59.93 l 0.96,7.54 H 402.5 384.01 L 365.74,180.5"
       id="path2009"
       style="fill:#782121" />
    <path
       fill="#efae7a"
       stroke="none"
       d="M 414.55,180.5 C 393.17,72.57 391.45,63.56 388.19,41.41 c -2.41,-16.33 -2.4,-16.82 0.35,-21.53 3,-5.11 12.24,-11.22 17.01,-11.22 4.66,0 13.99,6.07 16.84,10.95 1.59,2.72 3.24,9.89 4.13,17.94 0.81,7.38 3.66,23.74 6.33,36.37 2.69,12.64 7.19,35.57 10.04,50.96 2.84,15.39 9.62,51.56 15.07,80.38 5.46,28.81 10.35,55.78 10.88,59.93 l 0.96,7.54 H 451.31 432.82 L 414.55,180.5"
       id="path2011"
       style="fill:#782121" />
    <path
       fill="#efae7a"
       stroke="none"
       d="M 463.36,180.5 C 441.98,72.57 440.26,63.56 437,41.41 c -2.41,-16.33 -2.4,-16.82 0.35,-21.53 3,-5.11 12.24,-11.22 17.01,-11.22 4.58,0 13.97,6.02 16.69,10.72 1.38,2.37 4.15,13.02 6.15,23.68 3.92,20.87 3.71,19.8 26.74,136.37 8.5,43.03 15.82,81.61 16.25,85.76 l 0.79,7.54 H 501.3 481.63 L 463.36,180.5"
       id="path2013"
       style="fill:#782121" />
    <path
       fill="#ef907a"
       stroke="none"
       d="M 41.95,589.97 C 33.74,586.25 23.17,575.14 18.23,565.03 3.01,533.93 3.79,477.67 20.1,428.96 c 9.95,-29.7 26.53,-57.18 48.38,-80.16 23.04,-24.24 37.38,-33.25 70.71,-44.45 l 19.34,-6.5 2.94,-7.75 c 1.73,-4.58 4.11,-8.23 5.79,-8.88 1.58,-0.61 86.99,-1.16 189.84,-1.22 185.13,-0.1 187.01,-0.07 189.85,2.78 2.57,2.56 2.87,4.78 2.87,21.53 0,25.02 0.62,24.4 -24.4,24.4 -23.19,0 -24.41,0.76 -24.41,15.07 0,15.1 0.07,15.07 -34.13,15.07 -35.03,0 -34.77,0.1 -34.77,-14.44 0,-17.01 6.47,-15.7 -77.6,-15.7 h -71.83 l -3.53,3.51 c -2.96,2.98 -3.52,4.91 -3.52,12.21 0,14.32 -0.22,14.42 -33.74,14.42 -33.98,0 -33.73,0.12 -33.73,-15.79 0,-15.13 -1.02,-15.79 -24.29,-15.79 -17.65,0 -18.77,-0.17 -22.77,-3.54 -8.92,-7.51 -16.34,-8.26 -27.36,-2.76 -22.02,10.97 -42.44,40.68 -51.48,74.9 -5.53,20.91 -6.2,58.81 -1.8,100.78 1.78,16.97 3.31,37.97 3.38,46.65 0.13,14.23 -0.23,16.59 -3.65,23.86 -4.78,10.22 -13.22,19.62 -20.61,22.98 -7.27,3.31 -10.02,3.29 -17.63,-0.17"
       id="path2015" />
  </g>
</svg>

<?xml version="1.0" encoding="UTF-8" standalone="no"?>
<svg
   width="557px"
   height="600px"
   version="1.1"
   id="svg2019"
   sodipodi:docname="F39.svg"
   inkscape:version="1.2.2 (732a01da63, 2022-12-09)"
   xmlns:inkscape="http://www.inkscape.org/namespaces/inkscape"
   xmlns:sodipodi="http://sodipodi.sourceforge.net/DTD/sodipodi-0.dtd"
   xmlns="http://www.w3.org/2000/svg"
   xmlns:svg="http://www.w3.org/2000/svg">
  <defs
     id="defs2023" />
  <sodipodi:namedview
     id="namedview2021"
     pagecolor="#505050"
     bordercolor="#ffffff"
     borderopacity="1"
     inkscape:showpageshadow="0"
     inkscape:pageopacity="0"
     inkscape:pagecheckerboard="1"
     inkscape:deskcolor="#505050"
     showgrid="false"
     inkscape:zoom="1.3816667"
     inkscape:cx="278.64897"
     inkscape:cy="299.63812"
     inkscape:window-width="1920"
     inkscape:window-height="1009"
     inkscape:window-x="-8"
     inkscape:window-y="-8"
     inkscape:window-maximized="1"
     inkscape:current-layer="svg2019" />
  <g
     transform="translate(0000, 0000) scale(1.0000, 1.0000)"
     id="g2017">
    <path
       fill="#000000"
       stroke="none"
       d=" M 36.61 596.70 C 29.21 593.14 18.76 583.02 13.34 574.16 C -2.15 548.86 -4.26 487.64 8.71 439.23 C 19.11 400.44 38.80 365.84 65.98 338.71 C 74.30 330.40 85.85 320.45 91.65 316.62 C 101.11 310.36 130.15 297.17 134.53 297.14 C 135.49 297.13 139.84 295.79 144.20 294.16 C 151.91 291.29 152.21 290.96 154.41 283.39 C 156.98 274.59 159.35 272.73 168.05 272.73 L 174.08 272.73 L 173.12 265.19 C 172.58 261.04 167.69 234.07 162.23 205.26 C 156.78 176.44 150.00 140.27 147.16 124.88 C 144.32 109.49 139.72 86.24 136.94 73.21 C 126.36 23.57 129.39 8.50 151.21 2.17 C 158.85 -0.06 159.88 -0.06 166.68 2.21 C 170.69 3.53 176.01 6.43 178.53 8.63 L 183.09 12.63 L 187.64 8.57 C 190.14 6.34 195.67 3.42 199.95 2.07 C 207.30 -0.26 208.11 -0.24 215.34 2.15 C 219.54 3.55 225.20 6.73 227.92 9.23 L 232.86 13.77 L 237.43 9.20 C 240.07 6.56 245.34 3.59 249.96 2.14 C 257.58 -0.27 258.30 -0.26 265.58 2.15 C 269.79 3.55 275.44 6.73 278.17 9.23 L 283.11 13.77 L 287.67 9.20 C 290.31 6.56 295.58 3.59 300.21 2.14 C 307.81 -0.26 308.56 -0.26 315.72 2.12 C 319.87 3.50 325.31 6.43 327.83 8.63 L 332.39 12.63 L 336.94 8.57 C 339.44 6.34 344.97 3.42 349.24 2.07 C 356.58 -0.24 357.41 -0.24 364.53 2.12 C 368.68 3.50 374.12 6.43 376.64 8.63 L 381.20 12.63 L 385.75 8.57 C 388.25 6.34 393.78 3.42 398.05 2.07 C 405.39 -0.24 406.22 -0.24 413.34 2.12 C 417.49 3.50 422.93 6.43 425.44 8.63 L 430.01 12.63 L 434.56 8.57 C 437.06 6.34 442.59 3.42 446.86 2.07 C 454.18 -0.24 455.05 -0.24 462.07 2.10 C 470.56 4.91 477.18 9.95 480.30 15.98 C 481.47 18.26 484.00 29.97 485.91 42.00 C 490.96 73.77 493.29 86.05 512.80 184.09 L 530.44 272.71 L 540.85 272.73 C 557.03 272.73 557.00 272.67 557.00 304.31 C 557.00 337.61 558.32 335.89 532.60 335.89 C 509.41 335.89 508.19 336.65 508.19 350.96 C 508.19 366.43 509.28 366.03 466.56 366.03 C 423.84 366.03 424.93 366.43 424.93 350.96 C 424.93 334.77 430.18 335.89 353.87 335.89 C 277.55 335.89 282.81 334.77 282.81 350.96 C 282.81 366.40 283.80 366.03 241.89 366.03 C 199.73 366.03 200.98 366.52 200.98 350.24 C 200.98 335.21 199.85 334.45 177.49 334.45 C 159.94 334.45 159.68 334.41 154.32 330.14 C 147.60 324.80 144.73 324.78 135.66 330.00 C 122.93 337.32 109.38 352.92 100.37 370.64 C 84.83 401.18 81.34 435.85 87.76 495.98 C 89.44 511.74 90.87 533.04 90.96 543.30 C 91.12 564.47 88.90 572.56 79.59 584.74 C 68.92 598.71 51.09 603.67 36.61 596.70 M 59.58 590.14 C 66.97 586.78 75.41 577.38 80.19 567.16 C 83.61 559.89 83.97 557.53 83.84 543.30 C 83.77 534.62 82.24 513.62 80.46 496.65 C 76.06 454.68 76.73 416.78 82.26 395.87 C 91.30 361.65 111.72 331.94 133.74 320.97 C 144.76 315.47 152.18 316.22 161.10 323.73 C 165.10 327.10 166.22 327.27 183.87 327.27 C 207.14 327.27 208.16 327.93 208.16 343.06 C 208.16 358.97 207.91 358.85 241.89 358.85 C 275.41 358.85 275.63 358.75 275.63 344.43 C 275.63 337.13 276.19 335.20 279.15 332.22 L 282.68 328.71 L 354.51 328.71 C 438.58 328.71 432.11 327.40 432.11 344.41 C 432.11 358.95 431.85 358.85 466.88 358.85 C 501.08 358.85 501.01 358.88 501.01 343.78 C 501.01 329.47 502.23 328.71 525.42 328.71 C 550.44 328.71 549.82 329.33 549.82 304.31 C 549.82 287.56 549.52 285.34 546.95 282.78 C 544.11 279.93 542.17 279.90 356.29 279.90 C 208.29 279.90 168.00 280.28 166.15 281.70 C 164.86 282.69 162.62 286.72 161.19 290.67 L 158.57 297.85 L 139.22 304.35 C 105.87 315.53 91.53 324.56 68.48 348.80 C 26.79 392.63 4.74 453.53 7.64 516.75 C 8.99 546.20 15.91 566.76 29.03 580.22 C 35.80 587.18 45.56 592.77 50.96 592.77 C 52.54 592.77 56.42 591.59 59.58 590.14 M 221.92 265.19 C 221.39 261.04 216.50 234.07 211.04 205.26 C 205.59 176.44 198.81 140.27 195.97 124.88 C 193.13 109.49 188.62 86.56 185.93 73.92 C 183.26 61.29 180.41 44.93 179.60 37.55 C 178.71 29.50 177.06 22.33 175.47 19.61 C 172.63 14.73 163.30 8.66 158.63 8.66 C 153.79 8.66 144.59 14.80 141.52 20.07 C 137.77 26.48 137.97 41.25 142.05 59.57 C 143.64 66.67 148.54 91.54 152.95 114.83 C 157.35 138.11 164.85 177.52 169.61 202.39 C 174.36 227.25 179.29 253.26 180.55 260.17 L 182.83 272.73 L 202.86 272.73 L 222.89 272.73 L 221.92 265.19 M 272.17 265.19 C 271.05 256.48 250.48 146.94 239.09 89.00 C 234.82 67.29 230.26 43.64 228.96 36.43 C 227.65 29.24 225.36 21.32 223.85 18.85 C 220.50 13.35 209.92 7.85 205.10 9.10 C 198.88 10.72 192.35 15.70 190.00 20.66 C 186.45 28.08 187.54 34.62 216.44 180.50 L 234.72 272.73 L 253.92 272.73 L 273.13 272.73 L 272.17 265.19 M 322.41 265.19 C 321.29 256.48 300.72 146.94 289.34 89.00 C 285.06 67.29 280.51 43.64 279.20 36.43 C 276.40 20.94 273.45 15.50 265.69 11.54 C 258.56 7.89 256.82 7.89 249.75 11.50 C 238.40 17.30 236.35 24.72 239.87 47.40 C 243.13 68.37 254.57 128.22 270.79 209.20 L 283.52 272.71 L 303.45 272.71 L 323.38 272.73 L 322.41 265.19 M 371.22 265.19 C 370.69 261.04 365.80 234.07 360.34 205.26 C 354.89 176.44 348.11 140.27 345.27 124.88 C 342.43 109.49 337.92 86.56 335.23 73.92 C 332.56 61.29 329.72 45.03 328.93 37.77 C 327.27 22.67 324.78 16.84 318.27 12.83 C 310.84 8.24 307.43 7.94 300.64 11.24 C 288.68 17.04 286.55 24.37 290.11 47.40 C 293.37 68.37 304.81 128.22 321.04 209.20 L 333.77 272.71 L 352.98 272.71 L 372.19 272.73 L 371.22 265.19 M 420.03 265.19 C 419.50 261.04 414.61 234.07 409.15 205.26 C 403.70 176.44 396.92 140.27 394.08 124.88 C 391.24 109.49 386.73 86.56 384.04 73.92 C 381.37 61.29 378.52 44.93 377.71 37.55 C 376.82 29.50 375.17 22.33 373.58 19.61 C 370.74 14.73 361.40 8.66 356.74 8.66 C 351.97 8.66 342.73 14.77 339.73 19.88 C 335.51 27.11 336.21 31.42 365.74 180.50 L 384.01 272.73 L 402.50 272.73 L 420.99 272.73 L 420.03 265.19 M 468.84 265.19 C 468.31 261.04 463.42 234.07 457.96 205.26 C 452.51 176.44 445.73 140.27 442.89 124.88 C 440.04 109.49 435.54 86.56 432.85 73.92 C 430.18 61.29 427.33 44.93 426.52 37.55 C 425.63 29.50 423.98 22.33 422.39 19.61 C 419.54 14.73 410.21 8.66 405.55 8.66 C 400.78 8.66 391.54 14.77 388.54 19.88 C 384.32 27.11 385.02 31.42 414.55 180.50 L 432.82 272.73 L 451.31 272.73 L 469.80 272.73 L 468.84 265.19 M 520.19 265.19 C 519.76 261.04 512.44 222.46 503.94 179.43 C 480.91 62.86 481.12 63.93 477.20 43.06 C 475.20 32.40 472.43 21.75 471.05 19.38 C 468.33 14.68 458.94 8.66 454.36 8.66 C 449.59 8.66 440.35 14.77 437.35 19.88 C 433.12 27.11 433.83 31.42 463.36 180.50 L 481.63 272.73 L 501.30 272.73 L 520.98 272.73 L 520.19 265.19"
       id="path1999" />
    <path
       fill="#efae7a"
       stroke="none"
       d=" M 180.55 260.17 C 179.29 253.26 174.36 227.25 169.61 202.39 C 164.85 177.52 157.35 138.11 152.95 114.83 C 148.54 91.54 143.64 66.67 142.05 59.57 C 138.23 42.40 137.89 26.64 141.19 20.40 C 143.89 15.29 150.36 10.68 156.76 9.27 C 162.06 8.10 171.97 13.58 175.48 19.61 C 177.06 22.33 178.71 29.53 179.60 37.55 C 180.41 44.93 183.26 61.29 185.93 73.92 C 188.62 86.56 193.13 109.49 195.97 124.88 C 198.81 140.27 205.59 176.44 211.04 205.26 C 216.50 234.07 221.39 261.04 221.92 265.19 L 222.89 272.73 L 202.86 272.73 L 182.83 272.73 L 180.55 260.17"
       id="path2001"
       style="fill:#782121" />
    <path
       fill="#efae7a"
       stroke="none"
       d=" M 216.44 180.50 C 195.50 74.76 193.47 64.11 190.13 41.84 C 187.86 26.76 187.84 25.18 190.00 20.66 C 192.35 15.70 198.88 10.72 205.10 9.10 C 209.92 7.85 220.50 13.35 223.85 18.85 C 225.36 21.32 227.65 29.24 228.96 36.43 C 230.26 43.64 234.82 67.29 239.09 89.00 C 250.48 146.94 271.05 256.48 272.17 265.19 L 273.13 272.73 L 253.92 272.73 L 234.72 272.73 L 216.44 180.50"
       id="path2003"
       style="fill:#782121" />
    <path
       fill="#efae7a"
       stroke="none"
       d=" M 270.79 209.20 C 254.57 128.22 243.13 68.37 239.87 47.40 C 236.35 24.72 238.40 17.30 249.75 11.50 C 256.82 7.89 258.56 7.89 265.69 11.54 C 273.45 15.50 276.40 20.94 279.20 36.43 C 280.51 43.64 285.06 67.29 289.34 89.00 C 300.72 146.94 321.29 256.48 322.41 265.19 L 323.38 272.73 L 303.45 272.71 L 283.52 272.71 L 270.79 209.20"
       id="path2005"
       style="fill:#782121" />
    <path
       fill="#efae7a"
       stroke="none"
       d=" M 321.04 209.20 C 304.81 128.22 293.37 68.37 290.11 47.40 C 286.55 24.37 288.68 17.04 300.64 11.24 C 307.43 7.94 310.84 8.24 318.27 12.83 C 324.78 16.84 327.27 22.67 328.93 37.77 C 329.72 45.03 332.56 61.29 335.23 73.92 C 337.92 86.56 342.43 109.49 345.27 124.88 C 348.11 140.27 354.89 176.44 360.34 205.26 C 365.80 234.07 370.69 261.04 371.22 265.19 L 372.19 272.73 L 352.98 272.71 L 333.77 272.71 L 321.04 209.20"
       id="path2007"
       style="fill:#782121" />
    <path
       fill="#efae7a"
       stroke="none"
       d=" M 365.74 180.50 C 344.36 72.57 342.64 63.56 339.38 41.41 C 336.97 25.08 336.99 24.59 339.73 19.88 C 342.73 14.77 351.97 8.66 356.74 8.66 C 361.40 8.66 370.74 14.73 373.58 19.61 C 375.17 22.33 376.82 29.50 377.71 37.55 C 378.52 44.93 381.37 61.29 384.04 73.92 C 386.73 86.56 391.24 109.49 394.08 124.88 C 396.92 140.27 403.70 176.44 409.15 205.26 C 414.61 234.07 419.50 261.04 420.03 265.19 L 420.99 272.73 L 402.50 272.73 L 384.01 272.73 L 365.74 180.50"
       id="path2009"
       style="fill:#782121" />
    <path
       fill="#efae7a"
       stroke="none"
       d=" M 414.55 180.50 C 393.17 72.57 391.45 63.56 388.19 41.41 C 385.78 25.08 385.79 24.59 388.54 19.88 C 391.54 14.77 400.78 8.66 405.55 8.66 C 410.21 8.66 419.54 14.73 422.39 19.61 C 423.98 22.33 425.63 29.50 426.52 37.55 C 427.33 44.93 430.18 61.29 432.85 73.92 C 435.54 86.56 440.04 109.49 442.89 124.88 C 445.73 140.27 452.51 176.44 457.96 205.26 C 463.42 234.07 468.31 261.04 468.84 265.19 L 469.80 272.73 L 451.31 272.73 L 432.82 272.73 L 414.55 180.50"
       id="path2011"
       style="fill:#782121" />
    <path
       fill="#efae7a"
       stroke="none"
       d=" M 463.36 180.50 C 441.98 72.57 440.26 63.56 437.00 41.41 C 434.59 25.08 434.60 24.59 437.35 19.88 C 440.35 14.77 449.59 8.66 454.36 8.66 C 458.94 8.66 468.33 14.68 471.05 19.38 C 472.43 21.75 475.20 32.40 477.20 43.06 C 481.12 63.93 480.91 62.86 503.94 179.43 C 512.44 222.46 519.76 261.04 520.19 265.19 L 520.98 272.73 L 501.30 272.73 L 481.63 272.73 L 463.36 180.50"
       id="path2013"
       style="fill:#782121" />
    <path
       fill="#ef907a"
       stroke="none"
       d=" M 41.95 589.97 C 33.74 586.25 23.17 575.14 18.23 565.03 C 3.01 533.93 3.79 477.67 20.10 428.96 C 30.05 399.26 46.63 371.78 68.48 348.80 C 91.52 324.56 105.86 315.55 139.19 304.35 L 158.53 297.85 L 161.47 290.10 C 163.20 285.52 165.58 281.87 167.26 281.22 C 168.84 280.61 254.25 280.06 357.10 280.00 C 542.23 279.90 544.11 279.93 546.95 282.78 C 549.52 285.34 549.82 287.56 549.82 304.31 C 549.82 329.33 550.44 328.71 525.42 328.71 C 502.23 328.71 501.01 329.47 501.01 343.78 C 501.01 358.88 501.08 358.85 466.88 358.85 C 431.85 358.85 432.11 358.95 432.11 344.41 C 432.11 327.40 438.58 328.71 354.51 328.71 L 282.68 328.71 L 279.15 332.22 C 276.19 335.20 275.63 337.13 275.63 344.43 C 275.63 358.75 275.41 358.85 241.89 358.85 C 207.91 358.85 208.16 358.97 208.16 343.06 C 208.16 327.93 207.14 327.27 183.87 327.27 C 166.22 327.27 165.10 327.10 161.10 323.73 C 152.18 316.22 144.76 315.47 133.74 320.97 C 111.72 331.94 91.30 361.65 82.26 395.87 C 76.73 416.78 76.06 454.68 80.46 496.65 C 82.24 513.62 83.77 534.62 83.84 543.30 C 83.97 557.53 83.61 559.89 80.19 567.16 C 75.41 577.38 66.97 586.78 59.58 590.14 C 52.31 593.45 49.56 593.43 41.95 589.97"
       id="path2015" />
  </g>
</svg>
